X: 17
T: HILL, NEWCASTLE
C: James Hill
N: The title is confusing; it's usually called the Newcastle Hornpipe, and was composed by James Hill.
%R: hornpipe
B: Jean White "100 Popular Hornpipes, Reels, Jigs and Country Dances", Boston 1880 p.8
F: http://www.loc.gov/resource/sm1880.09124.0#seq-1
Z: 2014 John Chambers <jc:trillian.mit.edu>
M: C
L: 1/8
K: Bb
% - - - - - - - - - - - - - - - - - - - - - - - - - - - - -
{c}B>A |\
B2 B,2 (3dcB (3AGF | E2g2 g2f>e |\
d>fB>d c>eA>c | B>ba>g f>ed>c |
B2 B,2 (3dcB (3AGF | E2g2 g2f>e |\
d>fB>d c>eA>c | {c}BABc B2 :|
|: DC |\
B,>DF>B d>fb>a | {a}g>^fg>a g2 C>B, |\
A,>CF>A c>fa>g | f>=ef>g f2 D>C |
B,>DF>B d>fb>a | g>^fg>a g>de>=e |\
{g}f>ef>g f>ec>A | {c}B>AB>c B2 H:|
% - - - - - - - - - - - - - - - - - - - - - - - - - - - - -

%%sep 1 1 500
%%sep 1 1 500
